X:48
T:Up and Away
R:polka
D:John McKenna & Michael Gaffney 1934 (Decca)
D:Paul McGrattan: The Frost is All Over
Z:id:hn-polka-48
M:2/4
L:1/8
K:G
d2 B2|B/A/B/c/ BD|A>B A/F/D/F/|AG G/A/B/c/|
d2 B2|B/A/B/c/ BD|A>B A/F/D/F/|1 AG GB:|2 AG G2||
|:b/a/g/b/ a/g/f/e/|db b/a/b|da a/g/a|dg g/f/g|
b/a/g/b/ a/g/f/e/|db b/a/b|da a/g/a/b/|ag g2:|
<end>
<start>
